X: 1
T: Jenny's Folly
M: 4/4
L: 1/8
R: reel
K: Dmix
ADDD ADEF|GcAG EFGE|ADDD cDBD|AcGE c2Bc|
ADDD AGEF|Gc3 d2cd|ecdB cAGE|AcGE D2D2:|
ADcD BDAD|cdec dcAG|cdec defa|gece d3e|
fage dcAG|cEAG EAGE|ecdB cAGE|AcGE D2D2:|
